project/images/official/editable/532.svg

<?xml version="1.0" encoding="UTF-8" standalone="no"?>
<svg
   width="32.710621pt"
   height="36.345135pt"
   viewBox="0 0 32.710621 36.345135"
   version="1.1"
   id="svg3513"
   xmlns="http://www.w3.org/2000/svg"
   xmlns:svg="http://www.w3.org/2000/svg">
  <defs
     id="defs3517" />
  <g
     id="layer2"
     style="display:inline"
     transform="matrix(0.74036996,0,0,1,-12.289378,0)" />
  <g
     id="layer1"
     transform="scale(0.54916087,1.0159006)">
    <rect
       style="display:inline;fill:#ffffff;stroke:none;stroke-width:0.53553097;stroke-linecap:square;stroke-miterlimit:4;stroke-dasharray:none;stroke-opacity:1"
       id="rect3621"
       width="59.564735"
       height="35.776272"
       x="0"
       y="8.8817842e-16" />
    <rect
       style="fill:#ffffff;stroke:#000000;stroke-width:0.256646;stroke-linecap:butt;stroke-miterlimit:4;stroke-dasharray:none;stroke-dashoffset:0;stroke-opacity:1;paint-order:markers fill stroke"
       id="rect2760"
       width="57.176701"
       height="34.239315"
       x="1.1311125"
       y="0.78435546" />
  </g>
  <g
     id="surface1-6"
     transform="translate(3.215455,3.2966607)">
    <path
       style="fill:#211e1e;fill-opacity:1;fill-rule:nonzero;stroke:none"
       d="M 16.691406,3.554688 C 16.621094,3.816406 16.527344,4.136719 16.40625,4.382812 16.113281,4.953125 15.507812,5.34375 14.890625,5.371094 14.199219,5.390625 13.671875,4.753906 13.570312,4.070312 13.507812,3.625 13.585938,3.09375 13.710938,2.660156 l 2.980468,0.894532"
       id="path4157" />
    <path
       style="fill:#211e1e;fill-opacity:1;fill-rule:nonzero;stroke:none"
       d="m 13.757812,2.367188 c 0.07813,-0.246094 0.171876,-0.507813 0.28125,-0.738282 0.234376,-0.496094 0.703126,-0.886718 1.238282,-0.960937 0.578125,-0.070313 1.175781,0.308593 1.421875,0.828125 L 17.621094,3.5625 13.757812,2.367188"
       id="path4159" />
    <path
       style="fill:#211e1e;fill-opacity:1;fill-rule:nonzero;stroke:none"
       d="M 20.128906,4.097656 23.488281,7.0625 c 0.257813,0.230469 0.203125,0.679688 0.07813,1.003906 C 23.42188,8.445312 22.996099,8.964844 22.695317,9.222656 22.59375,9.308594 22.449219,9.378906 22.332031,9.332031 22.160156,9.273438 22.023438,9.039062 21.945312,8.875 L 21.53125,7.992188 C 21.316406,7.5625 20.90625,6.871094 20.636719,6.457031 L 19.5625,5 C 19.472656,4.921875 19.160156,4.664062 19.078125,4.574219 19.011719,4.5 18.96875,4.398438 18.992188,4.304688 19.066406,3.96875 19.871094,3.863281 20.128906,4.097656"
       id="path4161" />
    <path
       style="fill:#211e1e;fill-opacity:1;fill-rule:nonzero;stroke:none"
       d="M 22.164062,10.144531 C 21.816406,9.160156 21.34375,8.152344 20.828125,7.230469 20.46875,6.574219 20.023438,5.875 19.496094,5.300781 19.136719,4.902344 18.644531,4.542969 18.113281,4.464844 17.507812,4.371094 16.804688,4.667969 16.289062,5.007812 L 10.199219,8.890625 C 9.570312,8.636719 8.878906,9.070312 8.832031,9.742188 c -0.039062,0.636718 0.640625,1.191406 1.257813,1.011718 0.203125,-0.05078 0.378906,-0.171875 0.511718,-0.339844 l 1.355469,1.128907 -2.710937,3.042969 -0.511719,0.578124 C 7.816406,14.402344 6.730469,14.027344 5.535156,14.050781 c -2.375,0.05859 -4.40625,1.894531 -4.679687,4.257813 -0.144531,1.183594 0.132812,2.300781 0.796875,3.277344 0.367187,0.542968 0.835937,1.003906 1.386718,1.359374 1.632813,1.035157 3.902344,0.976563 5.496094,-0.199218 1.574219,-1.175782 2.28125,-3.3125 1.757813,-5.191406 -0.179688,-0.625 -0.476563,-1.207032 -0.886719,-1.710938 l 1.160156,-1.335938 2.042969,7.757813 2.992187,0.976563 c -0.625,3.199218 2.035157,6.074218 5.273438,5.734374 2.609375,-0.277343 4.535156,-2.636718 4.320312,-5.210937 -0.105468,-1.289063 -0.671874,-2.402344 -1.65625,-3.257813 -0.976562,-0.851562 -2.160156,-1.25 -3.46875,-1.171874 l -0.351562,-2.195313 2.585938,-2.945313 c 0.238281,-0.273437 0.417968,-0.605468 0.46875,-0.96875 0.03906,-0.292968 0.01562,-0.605468 -0.03125,-0.898437 -0.121094,-0.746094 -0.320313,-1.472656 -0.578126,-2.183594"
       id="path4163" />
    <path
       style="fill:#ffffff;fill-opacity:1;fill-rule:nonzero;stroke:none"
       d="m 18.570312,11.863281 -3.882812,0.832031 -0.109375,1.046876 -2.464844,-0.898438 1.285157,-1.386719 -1.800782,-1.5 4.566406,-2.707031 2.40625,4.613281"
       id="path4165" />
    <path
       style="fill:#ffffff;fill-opacity:1;fill-rule:nonzero;stroke:none"
       d="m 20.316406,20.6875 c 1.554688,0 2.945313,1.0625 3.367188,2.519531 0.414062,1.464844 -0.179688,3.085938 -1.488282,3.929688 -1.152343,0.734375 -2.664062,0.714843 -3.804687,-0.03125 -1.167969,-0.761719 -1.746094,-2.148438 -1.542969,-3.46875 l 3.261719,1.035156 c 0.195313,0.05859 0.40625,0.02344 0.566406,-0.09766 0.191407,-0.136719 0.28125,-0.375 0.238281,-0.613281 L 20.316406,20.6875"
       id="path4167" />
    <path
       style="fill:#ffffff;fill-opacity:1;fill-rule:nonzero;stroke:none"
       d="m 18.84375,23.277344 0.796875,0.273437 c 0.04687,0.01172 0.101563,0 0.132813,-0.03906 0.01562,-0.02344 0.02734,-0.0625 0.02344,-0.09375 l -0.433594,-2.601563 c -0.46875,0.113282 -0.90625,0.328125 -1.277343,0.640625 -0.410157,0.335938 -0.734376,0.769531 -0.929688,1.265625 l 1.6875,0.554688"
       id="path4169" />
    <path
       style="fill:#ffffff;fill-opacity:1;fill-rule:nonzero;stroke:none"
       d="m 16.4375,15.40625 1.171875,0.449219 -1.84375,3.230469 0.671875,-3.679688"
       id="path4171" />
    <path
       style="fill:#ffffff;fill-opacity:1;fill-rule:nonzero;stroke:none"
       d="m 18.496094,14.269531 -1.894532,0.199219 1.5,0.527344 0.394532,-0.726563"
       id="path4173" />
    <path
       style="fill:#ffffff;fill-opacity:1;fill-rule:nonzero;stroke:none"
       d="M 7.898438,16.195312 C 7.179688,15.605469 6.339844,15.34375 5.414062,15.417969 3.574219,15.5625 2.144531,17.175781 2.230469,19.03125 2.3125,20.839844 3.820312,22.316406 5.625,22.351562 7.40625,22.386719 8.949219,21.03125 9.15625,19.261719 9.25,18.378906 9.027344,17.550781 8.507812,16.835938 l -2.054687,2.25 L 5.625,19.308594 C 5.332031,19.386719 5.03125,19.183594 4.996094,18.882812 4.972656,18.636719 5.128906,18.40625 5.363281,18.34375 l 0.632813,-0.167969 1.902344,-1.980469"
       id="path4175" />
    <path
       style="fill:#ffffff;fill-opacity:1;fill-rule:nonzero;stroke:none"
       d="m 15.859375,22.289062 c 0.28125,-0.726562 0.75,-1.363281 1.347656,-1.859374 0.546875,-0.457032 1.207031,-0.78125 1.902344,-0.9375 l -0.21875,-1.453126 -3.109375,3.105469 c -0.242188,0.234375 -0.570312,0.347657 -0.902344,0.304688 -0.585937,-0.07031 -1.007812,-0.59375 -0.941406,-1.179688 l 0.589844,-5.546875 -3.082032,-1.128906 -0.136718,0.132812 2.027344,7.730469 2.523437,0.832031"
       id="path4177" />
  </g>
</svg>

<?xml version="1.0" encoding="UTF-8"?>
<svg xmlns="http://www.w3.org/2000/svg" xmlns:xlink="http://www.w3.org/1999/xlink" width="26pt" height="29pt" viewBox="0 0 26 29" version="1.1">
<g id="surface1">
<path style=" stroke:none;fill-rule:nonzero;fill:rgb(13.729858%,12.159729%,12.548828%);fill-opacity:1;" d="M 16.691406 3.554688 C 16.621094 3.816406 16.527344 4.136719 16.40625 4.382812 C 16.113281 4.953125 15.507812 5.34375 14.890625 5.371094 C 14.199219 5.390625 13.671875 4.753906 13.570312 4.070312 C 13.507812 3.625 13.585938 3.09375 13.710938 2.660156 L 16.691406 3.554688 "/>
<path style=" stroke:none;fill-rule:nonzero;fill:rgb(13.729858%,12.159729%,12.548828%);fill-opacity:1;" d="M 13.757812 2.367188 C 13.835938 2.121094 13.929688 1.859375 14.039062 1.628906 C 14.273438 1.132812 14.742188 0.742188 15.277344 0.667969 C 15.855469 0.597656 16.453125 0.976562 16.699219 1.496094 L 17.621094 3.5625 L 13.757812 2.367188 "/>
<path style=" stroke:none;fill-rule:nonzero;fill:rgb(13.729858%,12.159729%,12.548828%);fill-opacity:1;" d="M 20.128906 4.097656 L 23.488281 7.0625 C 23.746094 7.292969 23.691406 7.742188 23.566406 8.066406 C 23.421875 8.445312 22.996094 8.964844 22.695312 9.222656 C 22.59375 9.308594 22.449219 9.378906 22.332031 9.332031 C 22.160156 9.273438 22.023438 9.039062 21.945312 8.875 L 21.53125 7.992188 C 21.316406 7.5625 20.90625 6.871094 20.636719 6.457031 L 19.5625 5 C 19.472656 4.921875 19.160156 4.664062 19.078125 4.574219 C 19.011719 4.5 18.96875 4.398438 18.992188 4.304688 C 19.066406 3.96875 19.871094 3.863281 20.128906 4.097656 "/>
<path style=" stroke:none;fill-rule:nonzero;fill:rgb(13.729858%,12.159729%,12.548828%);fill-opacity:1;" d="M 22.164062 10.144531 C 21.816406 9.160156 21.34375 8.152344 20.828125 7.230469 C 20.46875 6.574219 20.023438 5.875 19.496094 5.300781 C 19.136719 4.902344 18.644531 4.542969 18.113281 4.464844 C 17.507812 4.371094 16.804688 4.667969 16.289062 5.007812 L 10.199219 8.890625 C 9.570312 8.636719 8.878906 9.070312 8.832031 9.742188 C 8.792969 10.378906 9.472656 10.933594 10.089844 10.753906 C 10.292969 10.703125 10.46875 10.582031 10.601562 10.414062 L 11.957031 11.542969 L 9.246094 14.585938 L 8.734375 15.164062 C 7.816406 14.402344 6.730469 14.027344 5.535156 14.050781 C 3.160156 14.109375 1.128906 15.945312 0.855469 18.308594 C 0.710938 19.492188 0.988281 20.609375 1.652344 21.585938 C 2.019531 22.128906 2.488281 22.589844 3.039062 22.945312 C 4.671875 23.980469 6.941406 23.921875 8.535156 22.746094 C 10.109375 21.570312 10.816406 19.433594 10.292969 17.554688 C 10.113281 16.929688 9.816406 16.347656 9.40625 15.84375 L 10.566406 14.507812 L 12.609375 22.265625 L 15.601562 23.242188 C 14.976562 26.441406 17.636719 29.316406 20.875 28.976562 C 23.484375 28.699219 25.410156 26.339844 25.195312 23.765625 C 25.089844 22.476562 24.523438 21.363281 23.539062 20.507812 C 22.5625 19.65625 21.378906 19.257812 20.070312 19.335938 L 19.71875 17.140625 L 22.304688 14.195312 C 22.542969 13.921875 22.722656 13.589844 22.773438 13.226562 C 22.8125 12.933594 22.789062 12.621094 22.742188 12.328125 C 22.621094 11.582031 22.421875 10.855469 22.164062 10.144531 "/>
<path style=" stroke:none;fill-rule:nonzero;fill:rgb(100%,100%,100%);fill-opacity:1;" d="M 18.570312 11.863281 L 14.6875 12.695312 L 14.578125 13.742188 L 12.113281 12.84375 L 13.398438 11.457031 L 11.597656 9.957031 L 16.164062 7.25 L 18.570312 11.863281 "/>
<path style=" stroke:none;fill-rule:nonzero;fill:rgb(100%,100%,100%);fill-opacity:1;" d="M 20.316406 20.6875 C 21.871094 20.6875 23.261719 21.75 23.683594 23.207031 C 24.097656 24.671875 23.503906 26.292969 22.195312 27.136719 C 21.042969 27.871094 19.53125 27.851562 18.390625 27.105469 C 17.222656 26.34375 16.644531 24.957031 16.847656 23.636719 L 20.109375 24.671875 C 20.304688 24.730469 20.515625 24.695312 20.675781 24.574219 C 20.867188 24.4375 20.957031 24.199219 20.914062 23.960938 L 20.316406 20.6875 "/>
<path style=" stroke:none;fill-rule:nonzero;fill:rgb(100%,100%,100%);fill-opacity:1;" d="M 18.84375 23.277344 L 19.640625 23.550781 C 19.6875 23.5625 19.742188 23.550781 19.773438 23.511719 C 19.789062 23.488281 19.800781 23.449219 19.796875 23.417969 L 19.363281 20.816406 C 18.894531 20.929688 18.457031 21.144531 18.085938 21.457031 C 17.675781 21.792969 17.351562 22.226562 17.15625 22.722656 L 18.84375 23.277344 "/>
<path style=" stroke:none;fill-rule:nonzero;fill:rgb(100%,100%,100%);fill-opacity:1;" d="M 16.4375 15.40625 L 17.609375 15.855469 L 15.765625 19.085938 L 16.4375 15.40625 "/>
<path style=" stroke:none;fill-rule:nonzero;fill:rgb(100%,100%,100%);fill-opacity:1;" d="M 18.496094 14.269531 L 16.601562 14.46875 L 18.101562 14.996094 L 18.496094 14.269531 "/>
<path style=" stroke:none;fill-rule:nonzero;fill:rgb(100%,100%,100%);fill-opacity:1;" d="M 7.898438 16.195312 C 7.179688 15.605469 6.339844 15.34375 5.414062 15.417969 C 3.574219 15.5625 2.144531 17.175781 2.230469 19.03125 C 2.3125 20.839844 3.820312 22.316406 5.625 22.351562 C 7.40625 22.386719 8.949219 21.03125 9.15625 19.261719 C 9.25 18.378906 9.027344 17.550781 8.507812 16.835938 L 6.453125 19.085938 L 5.625 19.308594 C 5.332031 19.386719 5.03125 19.183594 4.996094 18.882812 C 4.972656 18.636719 5.128906 18.40625 5.363281 18.34375 L 5.996094 18.175781 L 7.898438 16.195312 "/>
<path style=" stroke:none;fill-rule:nonzero;fill:rgb(100%,100%,100%);fill-opacity:1;" d="M 15.859375 22.289062 C 16.140625 21.5625 16.609375 20.925781 17.207031 20.429688 C 17.753906 19.972656 18.414062 19.648438 19.109375 19.492188 L 18.890625 18.039062 L 15.78125 21.144531 C 15.539062 21.378906 15.210938 21.492188 14.878906 21.449219 C 14.292969 21.378906 13.871094 20.855469 13.9375 20.269531 L 14.527344 14.722656 L 11.445312 13.59375 L 11.308594 13.726562 L 13.335938 21.457031 L 15.859375 22.289062 "/>
</g>
</svg>
